Suru++-Ubuntu/apps/scalable/fluxgui.svg

<svg width="256" height="256" version="1.1" viewBox="0 0 67.73 67.73" xmlns="http://www.w3.org/2000/svg" xmlns:xlink="http://www.w3.org/1999/xlink">
 <defs>
  <filter id="filter1001" x="-.06" y="-.06" width="1.12" height="1.12" style="color-interpolation-filters:sRGB">
   <feGaussianBlur stdDeviation="1.2"/>
  </filter>
  <linearGradient id="linearGradient1108" x1="296" x2="296" y1="-212" y2="236" gradientUnits="userSpaceOnUse">
   <stop style="stop-color:#ffffff" offset="0"/>
   <stop style="stop-color:#ffffff;stop-opacity:.09803922" offset=".125"/>
   <stop style="stop-color:#000000;stop-opacity:.09803922" offset=".925"/>
   <stop style="stop-color:#000000;stop-opacity:.49803922" offset="1"/>
  </linearGradient>
  <clipPath id="clipPath1082-3-61">
   <path d="M 361.9375,-212 C 507.2348,-212 528,-191.28677 528,-46.125 V 70.125 C 528,215.28618 507.2348,236 361.9375,236 H 214.0625 C 68.7652,236 48,215.28618 48,70.125 V -46.125 C 48,-191.28677 68.7652,-212 214.0625,-212 Z" style="fill:#8c59d9"/>
  </clipPath>
  <filter id="filter956" x="-.02" y="-.03" width="1.046" height="1.05" style="color-interpolation-filters:sRGB">
   <feGaussianBlur stdDeviation="2.32"/>
  </filter>
  <filter id="filter4569" x="-.01" y="-.01" width="1.023" height="1.025" style="color-interpolation-filters:sRGB">
   <feGaussianBlur stdDeviation="1.16"/>
  </filter>
 </defs>
 <g transform="translate(0,-229.26666)">
  <path transform="matrix(.26970778 0 0 .26970778 -7.1289177 220.56049)" d="m188.96876 43.999995c72.64865 0 83.03125 10.356615 83.03125 82.937505v58.125c0 72.58059-10.3826 82.9375-83.03125 82.9375h-73.9375c-72.648654 0-83.031254-10.35691-83.031254-82.9375v-58.125c0-72.58089 10.3826-82.937505 83.031254-82.937505z" style="filter:url(#filter4569);opacity:.1"/>
  <path transform="matrix(.26970778 0 0 .26970778 -7.1289177 220.56049)" d="m188.96876 45.999995c72.64865 0 83.03125 10.356615 83.03125 82.937505v58.125c0 72.58059-10.3826 82.9375-83.03125 82.9375h-73.9375c-72.648654 0-83.031254-10.35691-83.031254-82.9375v-58.125c0-72.58089 10.3826-82.937505 83.031254-82.937505z" style="filter:url(#filter956);opacity:.2"/>
  <path d="m23.895906 232.42763c-19.593906 0-22.394174 2.79326-22.394174 22.36889v15.67677c0 2.7418 0.058704 5.14346 0.2070219 7.26525l4.1083028 2.15766h56.09922l4.108302-2.15766c0.148317-2.12179 0.207023-4.52345 0.207023-7.26525v-15.67677c0-19.57563-2.800268-22.36889-22.394175-22.36889z" style="fill:#ffc567"/>
  <path d="m1.7087534 277.73854c0.9106226 13.02707 5.3376188 15.10363 22.187153 15.10363h19.94152c16.849535 0 21.27653-2.07656 22.187152-15.10363h-57.915005z" style="fill:#4a78c9"/>
  <path transform="matrix(.13485389 0 0 .13485389 -4.9712555 261.01666)" d="M 361.9375,-212 C 507.2348,-212 528,-191.28677 528,-46.125 V 70.125 C 528,215.28618 507.2348,236 361.9375,236 H 214.0625 C 68.7652,236 48,215.28618 48,70.125 V -46.125 C 48,-191.28677 68.7652,-212 214.0625,-212 Z" clip-path="url(#clipPath1082-3-61)" style="fill:none;opacity:.4;stroke-linecap:round;stroke-linejoin:round;stroke-width:8;stroke:url(#linearGradient1108)"/>
  <path transform="matrix(.26458333 0 0 .26458333 0 229.26666)" d="m214.40625 191.35547h-58.69141c9.35537 2.58748 19.167 4.08008 29.34571 4.08008 10.17892 0 19.99016-1.49249 29.3457-4.08008z" style="fill:#8d7a6f;opacity:.05"/>
  <path transform="matrix(.26458333 0 0 .26458333 0 229.26666)" d="m249.79688 174.23242c0.23688-5.88171 0.52734-11.51223 0.52734-18.49023v-59.251956c0-9.248329-0.16557-17.505574-0.59961-24.875-0.21702-3.684712-0.50097-7.146679-0.86523-10.40039-0.36427-3.253712-0.80837-6.297958-1.34571-9.146485-0.53733-2.848527-1.16806-5.501544-1.90429-7.970703-0.73624-2.469159-1.57812-4.755486-2.53907-6.871094-0.96095-2.115607-2.04046-4.059783-3.25195-5.847656-1.21149-1.787872-2.55511-3.418343-4.04297-4.904297-1.48786-1.485953-3.1201-2.827257-4.91016-4.037109-1.79005-1.209852-3.73739-2.288481-5.85546-3.248047s-4.407-1.800059-6.87891-2.535156-5.12694-1.365899-7.97852-1.902344c-2.85157-0.536445-5.89918-0.980141-9.15625-1.34375-3.25706-0.363609-6.72373-0.646692-10.41211-0.863281-7.37676-0.433179-15.64147-0.597656-24.89843-0.597656h-62.30664c-17.546727 19.48966-28.318363 45.198821-28.318363 73.488281 0 50.572623 34.172423 93.064073 80.654293 105.91992h58.69141c12.91614-3.57239 24.84947-9.42426 35.39063-17.12305z" style="fill:#ddcdc4;opacity:.05"/>
  <path transform="matrix(.26458333 0 0 .26458333 0 229.26666)" d="m250.32422 128.89844v-32.408206c0-9.248329-0.16557-17.505574-0.59961-24.875-0.21702-3.684712-0.50097-7.146679-0.86523-10.40039-0.36427-3.253712-0.80837-6.297958-1.34571-9.146485-0.53733-2.848527-1.16806-5.501544-1.90429-7.970703-0.73624-2.469159-1.57812-4.755486-2.53907-6.871094-0.96095-2.115607-2.04046-4.059783-3.25195-5.847656-1.21149-1.787872-2.55511-3.418343-4.04297-4.904297-1.48786-1.485953-3.1201-2.827257-4.91016-4.037109-1.79005-1.209852-3.73739-2.288481-5.85546-3.248047s-4.407-1.800059-6.87891-2.535156-5.12694-1.365899-7.97852-1.902344c-2.85157-0.536445-5.89918-0.980141-9.15625-1.34375-3.25706-0.363609-6.72373-0.646692-10.41211-0.863281-7.37676-0.433179-15.64147-0.597656-24.89843-0.597656h-8.47266c-29.70656 11.210594-50.875 39.823225-50.875 73.453125 0 43.393809 35.17847 78.572269 78.57227 78.572269 27.30173 0 51.33176-13.93922 65.41406-35.07422z" style="fill:#ebebeb;opacity:.1"/>
  <circle cx="48.924" cy="251.862" r="12.083" style="fill:#ffffff;opacity:.15"/>
  <circle transform="matrix(.26970778 0 0 .26970778 -7.1289177 220.56049)" cx="208" cy="118" r="24" style="filter:url(#filter1001);opacity:.1"/>
  <circle cx="48.97" cy="251.847" r="6.473" style="fill:#ff7e30"/>
 </g>
</svg>

<svg xmlns="http://www.w3.org/2000/svg" xmlns:xlink="http://www.w3.org/1999/xlink" width="256" height="256" version="1.1" viewBox="0 0 67.73 67.73">
 <defs>
  <filter style="color-interpolation-filters:sRGB" id="filter1001" width="1.12" height="1.12" x="-.06" y="-.06">
   <feGaussianBlur stdDeviation="1.2"/>
  </filter>
  <linearGradient id="linearGradient1108" x1="296" x2="296" y1="-212" y2="236" gradientUnits="userSpaceOnUse" xlink:href="#linearGradient1013"/>
  <linearGradient id="linearGradient1013">
   <stop offset="0" style="stop-color:#ffffff"/>
   <stop style="stop-color:#ffffff;stop-opacity:0.09803922" offset=".125"/>
   <stop style="stop-color:#000000;stop-opacity:0.09803922" offset=".925"/>
   <stop offset="1" style="stop-color:#000000;stop-opacity:0.49803922"/>
  </linearGradient>
  <clipPath id="clipPath1082-3-61" clipPathUnits="userSpaceOnUse">
   <path d="M 361.9375,-212 C 507.2348,-212 528,-191.28677 528,-46.125 V 70.125 C 528,215.28618 507.2348,236 361.9375,236 H 214.0625 C 68.7652,236 48,215.28618 48,70.125 V -46.125 C 48,-191.28677 68.7652,-212 214.0625,-212 Z" style="fill:#8c59d9"/>
  </clipPath>
  <filter style="color-interpolation-filters:sRGB" id="filter956" width="1.046" height="1.05" x="-.02" y="-.03">
   <feGaussianBlur stdDeviation="2.32"/>
  </filter>
  <filter style="color-interpolation-filters:sRGB" id="filter4569" width="1.023" height="1.025" x="-.01" y="-.01">
   <feGaussianBlur stdDeviation="1.16"/>
  </filter>
 </defs>
 <g transform="translate(0,-229.26666)">
  <path d="m 188.96876,43.999995 c 72.64865,0 83.03125,10.356615 83.03125,82.937505 v 58.125 c 0,72.58059 -10.3826,82.9375 -83.03125,82.9375 h -73.9375 C 42.382606,268 32.000006,257.64309 32.000006,185.0625 v -58.125 c 0,-72.58089 10.3826,-82.937505 83.031254,-82.937505 z" transform="matrix(0.26970778,0,0,0.26970778,-7.1289177,220.56049)" style="opacity:0.1;filter:url(#filter4569)"/>
  <path style="opacity:0.2;filter:url(#filter956)" d="m 188.96876,45.999995 c 72.64865,0 83.03125,10.356615 83.03125,82.937505 v 58.125 c 0,72.58059 -10.3826,82.9375 -83.03125,82.9375 h -73.9375 C 42.382606,270 32.000006,259.64309 32.000006,187.0625 v -58.125 c 0,-72.58089 10.3826,-82.937505 83.031254,-82.937505 z" transform="matrix(0.26970778,0,0,0.26970778,-7.1289177,220.56049)"/>
  <path style="fill:#ffc567" d="m 23.895906,232.42763 c -19.5939064,0 -22.3941745,2.79326 -22.3941745,22.36889 v 15.67677 c 0,2.7418 0.058704,5.14346 0.2070219,7.26525 l 4.1083028,2.15766 H 61.916276 l 4.108302,-2.15766 c 0.148317,-2.12179 0.207023,-4.52345 0.207023,-7.26525 v -15.67677 c 0,-19.57563 -2.800268,-22.36889 -22.394175,-22.36889 z"/>
  <path style="fill:#4a78c9" d="m 1.7087534,277.73854 c 0.9106226,13.02707 5.3376188,15.10363 22.1871526,15.10363 h 19.94152 c 16.849535,0 21.27653,-2.07656 22.187152,-15.10363 H 8.1095726 Z"/>
  <path d="M 361.9375,-212 C 507.2348,-212 528,-191.28677 528,-46.125 V 70.125 C 528,215.28618 507.2348,236 361.9375,236 H 214.0625 C 68.7652,236 48,215.28618 48,70.125 V -46.125 C 48,-191.28677 68.7652,-212 214.0625,-212 Z" clip-path="url(#clipPath1082-3-61)" transform="matrix(0.13485389,0,0,0.13485389,-4.9712555,261.01666)" style="opacity:0.4;fill:none;stroke:url(#linearGradient1108);stroke-width:8;stroke-linecap:round;stroke-linejoin:round"/>
  <path style="opacity:0.05;fill:#8d7a6f" d="M 214.40625 191.35547 L 155.71484 191.35547 C 165.07021 193.94295 174.88184 195.43555 185.06055 195.43555 C 195.23947 195.43555 205.05071 193.94306 214.40625 191.35547 z" transform="matrix(0.26458333,0,0,0.26458333,0,229.26666)"/>
  <path style="opacity:0.05;fill:#ddcdc4" d="M 249.79688 174.23242 C 250.03376 168.35071 250.32422 162.72019 250.32422 155.74219 L 250.32422 96.490234 C 250.32422 87.241905 250.15865 78.98466 249.72461 71.615234 C 249.50759 67.930522 249.22364 64.468555 248.85938 61.214844 C 248.49511 57.961132 248.05101 54.916886 247.51367 52.068359 C 246.97634 49.219832 246.34561 46.566815 245.60938 44.097656 C 244.87314 41.628497 244.03126 39.34217 243.07031 37.226562 C 242.10936 35.110955 241.02985 33.166779 239.81836 31.378906 C 238.60687 29.591034 237.26325 27.960563 235.77539 26.474609 C 234.28753 24.988656 232.65529 23.647352 230.86523 22.4375 C 229.07518 21.227648 227.12784 20.149019 225.00977 19.189453 C 222.8917 18.229887 220.60277 17.389394 218.13086 16.654297 C 215.65895 15.9192 213.00392 15.288398 210.15234 14.751953 C 207.30077 14.215508 204.25316 13.771812 200.99609 13.408203 C 197.73903 13.044594 194.27236 12.761511 190.58398 12.544922 C 183.20722 12.111743 174.94251 11.947266 165.68555 11.947266 L 103.37891 11.947266 C 85.832183 31.436926 75.060547 57.146087 75.060547 85.435547 C 75.060547 136.00817 109.23297 178.49962 155.71484 191.35547 L 214.40625 191.35547 C 227.32239 187.78308 239.25572 181.93121 249.79688 174.23242 z" transform="matrix(0.26458333,0,0,0.26458333,0,229.26666)"/>
  <path style="opacity:0.1;fill:#ebebeb" d="M 250.32422 128.89844 L 250.32422 96.490234 C 250.32422 87.241905 250.15865 78.98466 249.72461 71.615234 C 249.50759 67.930522 249.22364 64.468555 248.85938 61.214844 C 248.49511 57.961132 248.05101 54.916886 247.51367 52.068359 C 246.97634 49.219832 246.34561 46.566815 245.60938 44.097656 C 244.87314 41.628497 244.03126 39.34217 243.07031 37.226562 C 242.10936 35.110955 241.02985 33.166779 239.81836 31.378906 C 238.60687 29.591034 237.26325 27.960563 235.77539 26.474609 C 234.28753 24.988656 232.65529 23.647352 230.86523 22.4375 C 229.07518 21.227648 227.12784 20.149019 225.00977 19.189453 C 222.8917 18.229887 220.60277 17.389394 218.13086 16.654297 C 215.65895 15.9192 213.00392 15.288398 210.15234 14.751953 C 207.30077 14.215508 204.25316 13.771812 200.99609 13.408203 C 197.73903 13.044594 194.27236 12.761511 190.58398 12.544922 C 183.20722 12.111743 174.94251 11.947266 165.68555 11.947266 L 157.21289 11.947266 C 127.50633 23.15786 106.33789 51.770491 106.33789 85.400391 C 106.33789 128.7942 141.51636 163.97266 184.91016 163.97266 C 212.21189 163.97266 236.24192 150.03344 250.32422 128.89844 z" transform="matrix(0.26458333,0,0,0.26458333,0,229.26666)"/>
  <circle style="opacity:0.15;fill:#ffffff" cx="48.924" cy="251.862" r="12.083"/>
  <circle cx="208" cy="118" r="24" transform="matrix(0.26970778,0,0,0.26970778,-7.1289177,220.56049)" style="opacity:0.1;filter:url(#filter1001)"/>
  <circle style="fill:#ff7e30" cx="48.97" cy="251.847" r="6.473"/>
 </g>
</svg>
